!!!OTL: Die verlorene Ehre (25b), S.102
!!!id: T0147
**kern
*clefG2
*k[f#]
*D:
{4f#
=1
4d
4f#
4f#
4a
=2
4.e
8f#
4e}
=3
{8e
8f#
=4
4g
4b
4b
8a
8g
=5
4f#
4a
4a}
=6
{8d
8d
=7
4d
4f#
8f#
8e
8d
8d
=8
4f#
8a
8dd
8dd
8b}
=9
{8b
8b
=10
4a
8a
8a
4g
8a
8g
=11
4f#}
2r
==
*-
!!!minrhy: 8
!!!meters: 4/4 ]  ZZ[4
!!!cut: Die verlorene Ehre (25b), S.102
!!!reg: Luxemburg
!!!trd: Singendes Volk, Esch-Alzette 1937 posth.
!!!rhy1: X_  X_X_X_X_  X_.XX_
!!!rhy2: XX  X_X_X_XX  X_X_X_
!!!key: T0147  08  D 4/4 ]  ZZ[4
!!!mod: SECHSTONSKALA DUR ?]  AMBITUS[8
!!!kad: 2563
!!!akz: 1322_4635_133+1_543_
!!!fot: 'a__as"b__c__
!!!for: 'a__b__c__d__
!!!fok: 'Sd_~a_Ma_\__
!! PHRAS[AUFTAKTIG]
!!!fkt: Liebeslieder
!!!bem: Hamm, ? Welter zu Diekirch, 26.3.1933
!! THILL, Mathias:
!! PR[44] 2K[0] 2G[7] 3K[5] 3G[2] 4A[0] 4Ü[0] 5A[2] 6K[0] 6G[5]
!! 7K[0] 7G[0] 8A[0] MEHR[0] SI[22] ABS[41] SR[7] SP[15]
!! ST[10] 2k[2] 2g[17] 3k[2] 3g[5] 4d[7] 4ü[0] 5d[0] 6k[0] 6g[0]
!! 7k[0] 7g[0] 8d[0] mehr[0] si[34] dm[-12] sr[20] sp[15]
!! 1F[64] 2F[36] 3F[0] 4F[0] LF[0] 2P[0] 3P[0] 4P[0] TRI[0] DF[2] AB[44]
!! TF[0] U3K[0] U3[0] U4[0] U4Ü[0] U5[2] U6K[0] U6[0] U7K[0] U7[0]
!! N1[19] N2K[0] N2[0] N3K[0] N3[12] N4[17] N4Ü[0] N5[21] N6K[0] N6[26]
!!!n7k: 0] N7[0] O1[2] O2K[0] O2[0] O3K[0] O3[0] HÖ[0
